.local/share/icons/Gruvbox-Plus-Dark/actions/16/svn-commit.svg

<svg xmlns="http://www.w3.org/2000/svg" width="16" height="16" viewBox="0 0 16 16">
 <defs>
  <style id="current-color-scheme" type="text/css">
   .ColorScheme-Text { color:#ebdbb2; } .ColorScheme-Highlight { color:#458588; }
  </style>
 </defs>
 <path style="fill:currentColor" class="ColorScheme-Text" d="M 3.5 1 C 2.1193 1 1 2.1193 1 3.5 C 1.0001 4.6879 1.8361 5.7116187 3 5.9492188 L 3 9.953125 C 1.8368 10.190555 1.0011 11.213191 1 12.400391 C 1 13.781091 2.1193 14.900391 3.5 14.900391 C 4.8807 14.900391 6 13.781091 6 12.400391 C 5.9999 11.213391 5.1639 10.188972 4 9.9511719 L 4 5.9453125 C 4.3899 5.8671125 4.7554063 5.6970187 5.0664062 5.4492188 L 6.2792969 6.3574219 C 6.0966969 6.7106219 6.0009 7.1023 6 7.5 C 6 8.8807 7.1193 10 8.5 10 C 9.8807 10 11 8.8807 11 7.5 C 11 6.1193 9.8807 5 8.5 5 C 7.908 5.0011 7.3356656 5.2122031 6.8847656 5.5957031 L 5.6914062 4.703125 C 5.8938062 4.334425 6 3.9206 6 3.5 C 6 2.1193 4.8807 1 3.5 1 z M 11.5 9 L 11.28125 9.1875 L 8 12 L 10 12 L 10 15 L 13 15 L 13 12 L 15 12 L 11.71875 9.1875 L 11.5 9 z"/>
</svg>

<svg width="16" height="16" version="1.1" xmlns="http://www.w3.org/2000/svg">
  <defs>
    <style id="current-color-scheme" type="text/css">.ColorScheme-Text { color:#ebdbb2; } .ColorScheme-Highlight { color:#458588; }</style>
  </defs>
  <path class="ColorScheme-Text" d="m3.5 1c-1.381 0-2.5 1.119-2.5 2.5 1e-4 1.188 0.8361 2.212 2 2.449v4.004c-1.163 0.2374-1.999 1.26-2 2.447 0 1.381 1.119 2.5 2.5 2.5s2.5-1.119 2.5-2.5c-1e-4 -1.187-0.8361-2.211-2-2.449v-4.006c0.3899-0.0782 0.7554-0.2483 1.066-0.4961l1.213 0.9082c-0.1826 0.3532-0.2784 0.7449-0.2793 1.143 0 1.381 1.119 2.5 2.5 2.5s2.5-1.119 2.5-2.5-1.119-2.5-2.5-2.5c-0.592 0.0011-1.164 0.2122-1.615 0.5957l-1.193-0.8926c0.2024-0.3687 0.3086-0.7825 0.3086-1.203 0-1.381-1.119-2.5-2.5-2.5zm8 8-3.5 4h2v2h3v-2h2z" fill="currentColor"/>
</svg>
